svgs/light/tv-retro.svg

<svg xmlns="http://www.w3.org/2000/svg" viewBox="0 0 512 512"><!--! Font Awesome Pro 6.6.0 by @fontawesome - https://fontawesome.com License - https://fontawesome.com/license (Commercial License) Copyright 2024 Fonticons, Inc. --><path d="M154.4 3.9c-6.7-5.8-16.8-5-22.6 1.7s-5 16.8 1.7 22.6L212.7 96 80 96C35.8 96 0 131.8 0 176L0 432c0 44.2 35.8 80 80 80l352 0c44.2 0 80-35.8 80-80l0-256c0-44.2-35.8-80-80-80L299.3 96l79.2-67.9c6.7-5.8 7.5-15.9 1.7-22.6s-15.8-7.5-22.6-1.7L256 90.9 154.4 3.9zM256 128l176 0c26.5 0 48 21.5 48 48l0 256c0 26.5-21.5 48-48 48L80 480c-26.5 0-48-21.5-48-48l0-256c0-26.5 21.5-48 48-48l176 0s0 0 0 0zm80 64c8.8 0 16 7.2 16 16l0 192c0 8.8-7.2 16-16 16l-224 0c-8.8 0-16-7.2-16-16l0-192c0-8.8 7.2-16 16-16l224 0zM112 160c-26.5 0-48 21.5-48 48l0 192c0 26.5 21.5 48 48 48l224 0c26.5 0 48-21.5 48-48l0-192c0-26.5-21.5-48-48-48l-224 0zm320 72a24 24 0 1 0 0-48 24 24 0 1 0 0 48zm24 40a24 24 0 1 0 -48 0 24 24 0 1 0 48 0z"/></svg>

<svg xmlns="http://www.w3.org/2000/svg" viewBox="0 0 512 512"><!--! Font Awesome Pro 6.5.2 by @fontawesome - https://fontawesome.com License - https://fontawesome.com/license (Commercial License) Copyright 2024 Fonticons, Inc. --><path d="M154.4 3.9c-6.7-5.8-16.8-5-22.6 1.7s-5 16.8 1.7 22.6L212.7 96H80C35.8 96 0 131.8 0 176V432c0 44.2 35.8 80 80 80H432c44.2 0 80-35.8 80-80V176c0-44.2-35.8-80-80-80H299.3l79.2-67.9c6.7-5.8 7.5-15.9 1.7-22.6s-15.8-7.5-22.6-1.7L256 90.9 154.4 3.9zM256 128H432c26.5 0 48 21.5 48 48V432c0 26.5-21.5 48-48 48H80c-26.5 0-48-21.5-48-48V176c0-26.5 21.5-48 48-48H256s0 0 0 0zm80 64c8.8 0 16 7.2 16 16V400c0 8.8-7.2 16-16 16H112c-8.8 0-16-7.2-16-16V208c0-8.8 7.2-16 16-16H336zM112 160c-26.5 0-48 21.5-48 48V400c0 26.5 21.5 48 48 48H336c26.5 0 48-21.5 48-48V208c0-26.5-21.5-48-48-48H112zm320 72a24 24 0 1 0 0-48 24 24 0 1 0 0 48zm24 40a24 24 0 1 0 -48 0 24 24 0 1 0 48 0z"/></svg>
